!! 00000] TT[WS
!!!OTL: Siji shengchan
!!!ARE: Asia, China, Shanxi Zuoqun
!! Ethnic Group: Han
!! Wang Sen
!!!SCT: J0767
!!!YEM: Copyright 1995, estate of Helmut Schaffrath.
**kern
*ICvox
*Ivox
*M2/4
*k[b-]
*F:
{4cc
4cc
=1
4dd
4cc
=2
8cc
8dd
8cc
8a
=3
8g
8f
4g}
=4
{8g
8a
4cc
=5
4dd
4cc
=6
8a
8g
4f
=7
8g
8f
4g}
=8
{8g
8a
4cc
=9
8dd
8ff
4cc
=10
8a
8g
8f
8g
=11
2d}
=12
{8a
8f
4g
=13
8a
8f
4g
=14
8g
8cc
8a
8cc
=15
8cc
8f
4g}
=16
{8cc
8a
4cc
=17
8g
8a
8g
8f
=18
8d
4f
8a
=19
4g
8g
8d
=20
2c}
=21
{8g
8a
8f
8f
=22
8g
8f
4g}
=23
{8cc
8a
4cc
=24
8g
8a
8g
8f
=25
8d
4f
8a
=26
4g
8g
8d
=27
2c}
==
!!!AGN: Xiaodiao. Laodong, Xinminge
!!!ONB: ESAC (Essen Associative Code) Database: CHINA
!!!AMT: simple duple
!!!AIN: vox
!!!EED: Helmut Schaffrath
!!!EEV: 1.0
*-
